assets/icons/uE003-barcode.svg

<?xml version="1.0" encoding="UTF-8" standalone="no"?>
<svg
   xmlns:dc="http://purl.org/dc/elements/1.1/"
   xmlns:cc="http://creativecommons.org/ns#"
   xmlns:rdf="http://www.w3.org/1999/02/22-rdf-syntax-ns#"
   xmlns:svg="http://www.w3.org/2000/svg"
   xmlns="http://www.w3.org/2000/svg"
   xmlns:sodipodi="http://sodipodi.sourceforge.net/DTD/sodipodi-0.dtd"
   xmlns:inkscape="http://www.inkscape.org/namespaces/inkscape"
   version="1.1"
   width="896"
   height="1232"
   viewBox="0 0 896 1232"
   id="svg3013"
   inkscape:version="0.48.3.1 r9886"
   sodipodi:docname="uE003-barcode.svg">
  <metadata
     id="metadata3020">
    <rdf:RDF>
      <cc:Work
         rdf:about="">
        <dc:format>image/svg+xml</dc:format>
        <dc:type
           rdf:resource="http://purl.org/dc/dcmitype/StillImage" />
      </cc:Work>
    </rdf:RDF>
  </metadata>
  <defs
     id="defs3018" />
  <sodipodi:namedview
     pagecolor="#ffffff"
     bordercolor="#666666"
     borderopacity="1"
     objecttolerance="10"
     gridtolerance="10"
     guidetolerance="10"
     inkscape:pageopacity="0"
     inkscape:pageshadow="2"
     inkscape:window-width="640"
     inkscape:window-height="480"
     id="namedview3016"
     showgrid="false"
     inkscape:zoom="0.19155844"
     inkscape:cx="448"
     inkscape:cy="838.68298"
     inkscape:window-x="0"
     inkscape:window-y="27"
     inkscape:window-maximized="0"
     inkscape:current-layer="svg3013" />
  <path
     d="M 0,803.33334 H 74.333332 V 60 H 0 V 803.33334 z M 74.333332,952 V 877.66666 H 297.33334 V 952 H 74.333332 z M 148.66666,803.33334 V 60 H 223 V 803.33334 H 148.66666 z M 371.66666,952 V 884.35667 H 446 V 952 h -74.33334 z m 0,-148.66666 V 60 H 520.33334 V 803.33334 H 371.66666 z M 520.33334,952 v -67.64333 h 74.33332 V 952 H 520.33334 z M 594.66666,803.33334 V 60 H 669 V 803.33334 H 594.66666 z M 669,952 V 884.35667 H 817.66666 V 952 H 669 z M 743.33332,803.33334 V 60 H 892 V 803.33334 H 743.33332 z"
     id="icon65"
     inkscape:connector-curvature="0" />
</svg>

<svg xmlns="http://www.w3.org/2000/svg" width="896" height="1232" viewBox="0 0 896 1232"><path d="M0 803.333h74.333V60H0v743.333zM74.333 952v-74.333h223V952h-223zm74.334-148.667V60H223v743.333h-74.333zm223 148.667v-67.643H446V952h-74.333zm0-148.667V60h148.666v743.333H371.667zM520.333 952v-67.643h74.334V952h-74.334zm74.334-148.667V60H669v743.333h-74.333zM669 952v-67.643h148.667V952H669zm74.333-148.667V60H892v743.333H743.333z"/></svg>
